!! 00021] TT[TB
!! S-0046 (M-45/8 (SZ 97)
!!!OTL: Huangyang biandan
!!!ARE: Asia, China,Sichuan, Xiushan
!! Ethnic Group: Han
!! II, 255 (2)  und Textkopie
!!!SCT: C0234
!!!YEM: Copyright 1995, estate of Helmut Schaffrath.
**kern
*ICvox
*Ivox
*M2/4
*k[f#c#]
*D:
{16f#
16a
8f#
8a
16f#
16a
=1
8f#
8a
8a
16f#
16a}
=2
{4b
16b
16a
16f#
16a
=3
2f#}
=4
{8b
16b
16cc#
16cc#
16b
8a
=5
8b
8cc#
16cc#
16b
8a}
=6
{8f#
8f#
16e
16d
8B
=7
8e
16f#
16a
8f#
16e
16d
=8
16e
16d
16B
16d
4B}
=9
{8f#
8f#
16e
16d
8B
=10
8e
16f#
16a
8f#
16e
16d
=11
16e
16d
16B
16d
4B}
==
!!!AGN: Xiaodiao, Huadeng Xiaodiao
!! 
!!!ONB: ESAC (Essen Associative Code) Database: CHINA_085
!!!AMT: simple duple
!!!AIN: vox
!!!EED: Helmut Schaffrath
!!!EEV: 1.0
*-
